X:20
T:Lo Consou De Jioneto 
M:6/8
L:1/8
N:La Bourre 4th edition 1929, page 35
Z:Steve Mansfield www.lesession.co.uk May 2012
K:Bb
F B c | d2 B d2 e | d3 c B c |
d2 B d2 e | !fermata!d3 d d d | c2 d f e d | c3 d2 c |
B2 c d e c | !fermata!d3 F B c | f2 e {d}c3 | B6 |]

